X: 1493
T: Going to the Barn Dance
B: australian traditional tunes wiki
M:2/4
L:1/8
R: Quickstep
Q: 1/4=100
K:C
V:1 
"C"e2 cG|EG2A|A>G GE|G4|"F"F3A|"G7"Bc BG|"C"c4|c4|!
"C"e2 cG|EG2A|A>G GE|G4|"F"F3A|"G7"Bc BG|"C"c4|c3 G|!
"F"A2f>e|fA2A|"C"Ge e^d|"Am"e4|"D7"d4|c3A|"G"B2c2|"G7"d2^d2|!
"C"e2 cG|EG2A|A>G GE|G4|"F"F3A|"G7"Bc BG|"C"c4|c4||
% abcbook-tune_id 6342d53ad327fa1d0964057c


% abcbook-boost 0
% abcbook-tablature 
% abcbook-transpose 
% abcbook-lastupdated 1665324367722
% abcbook-soundfonts 
% abcbook-repeats 1
% NFF Book 2014

